flaticon/web-design/upload.svg

<svg xmlns="http://www.w3.org/2000/svg" width="32" height="32" viewBox="0 0 24 24">
    <path d="M12.601562 1.796875C12.394531 1.796875 12.226562 1.964844 12.226562 2.171875 12.226562 2.378906 12.394531 2.550781 12.601562 2.550781 14.4375 2.550781 15.933594 4.042969 15.933594 5.882812 15.933594 6.089844 16.101562 6.257812 16.308594 6.257812 16.515625 6.257812 16.683594 6.089844 16.683594 5.882812 16.683594 3.628906 14.851562 1.796875 12.601562 1.796875zM19.113281 7.808594C18.90625 7.808594 18.738281 7.976562 18.738281 8.1875 18.738281 8.394531 18.90625 8.5625 19.113281 8.5625 20.566406 8.5625 21.746094 9.742188 21.746094 11.191406 21.746094 11.398438 21.914062 11.566406 22.121094 11.566406 22.328125 11.566406 22.496094 11.398438 22.496094 11.191406 22.496094 9.328125 20.980469 7.808594 19.113281 7.808594zM19.113281 7.808594"/>
    <path d="M19.113281 6.308594C18.792969 6.308594 18.476562 6.339844 18.164062 6.398438 18.179688 6.226562 18.1875 6.054688 18.1875 5.882812 18.1875 2.800781 15.683594.292969 12.601562.292969 9.550781.292969 7.0625 2.753906 7.015625 5.792969 6.460938 5.601562 5.882812 5.503906 5.285156 5.503906 2.371094 5.503906 0 7.875 0 10.792969 0 12.109375.488281 13.371094 1.375 14.347656 2.222656 15.28125 3.367188 15.875 4.609375 16.035156 4.664062 16.0625 4.722656 16.078125 4.785156 16.078125L8.191406 16.078125 8.191406 20.523438C8.191406 20.730469 8.359375 20.898438 8.566406 20.898438L15.382812 20.898438C15.589844 20.898438 15.757812 20.730469 15.757812 20.523438L15.757812 16.078125 19.015625 16.078125C19.023438 16.078125 19.03125 16.078125 19.039062 16.078125 19.0625 16.078125 19.089844 16.078125 19.113281 16.078125 21.808594 16.078125 24 13.886719 24 11.191406 24 8.5 21.808594 6.308594 19.113281 6.308594zM15.382812 11.929688C15.175781 11.929688 15.007812 12.097656 15.007812 12.308594L15.007812 20.148438 8.945312 20.148438 8.945312 12.308594C8.945312 12.097656 8.777344 11.929688 8.566406 11.929688L5.824219 11.929688 11.976562 6.964844 18.148438 11.929688zM19.113281 15.324219C19.085938 15.324219 19.054688 15.324219 19.023438 15.324219 19.011719 15.324219 18.996094 15.324219 18.984375 15.324219L15.757812 15.324219 15.757812 12.683594 19.214844 12.683594C19.375 12.683594 19.515625 12.582031 19.570312 12.433594 19.621094 12.28125 19.574219 12.113281 19.449219 12.015625L12.210938 6.1875C12.074219 6.078125 11.875 6.078125 11.738281 6.191406L4.523438 12.015625C4.398438 12.113281 4.351562 12.28125 4.40625 12.433594 4.457031 12.582031 4.601562 12.683594 4.761719 12.683594L8.191406 12.683594 8.191406 15.324219 4.921875 15.324219C4.890625 15.3125 4.855469 15.304688 4.824219 15.300781 2.5 15.066406.75 13.128906.75 10.792969.75 8.289062 2.785156 6.257812 5.285156 6.257812 5.972656 6.257812 6.636719 6.40625 7.25 6.703125 7.371094 6.761719 7.515625 6.75 7.628906 6.671875 7.738281 6.597656 7.800781 6.464844 7.789062 6.328125 7.773438 6.179688 7.765625 6.027344 7.765625 5.882812 7.765625 3.214844 9.933594 1.046875 12.601562 1.046875 15.265625 1.046875 17.4375 3.214844 17.4375 5.882812 17.4375 6.199219 17.40625 6.519531 17.34375 6.832031 17.316406 6.964844 17.363281 7.097656 17.460938 7.1875 17.5625 7.277344 17.699219 7.304688 17.828125 7.261719 18.242188 7.128906 18.675781 7.058594 19.113281 7.058594 21.394531 7.058594 23.25 8.914062 23.25 11.191406 23.25 13.472656 21.394531 15.324219 19.113281 15.324219zM15.382812 21.550781L8.566406 21.550781C8.359375 21.550781 8.191406 21.71875 8.191406 21.925781 8.191406 22.132812 8.359375 22.304688 8.566406 22.304688L15.382812 22.304688C15.589844 22.304688 15.757812 22.132812 15.757812 21.925781 15.757812 21.71875 15.589844 21.550781 15.382812 21.550781zM15.382812 22.953125L8.566406 22.953125C8.359375 22.953125 8.191406 23.121094 8.191406 23.328125 8.191406 23.539062 8.359375 23.707031 8.566406 23.707031L15.382812 23.707031C15.589844 23.707031 15.757812 23.539062 15.757812 23.328125 15.757812 23.121094 15.589844 22.953125 15.382812 22.953125zM15.382812 22.953125"/>
</svg>

<svg xmlns="http://www.w3.org/2000/svg" width="32" height="32" viewBox="0 0 24 24">
    <path d="M12.602 1.797a.375.375 0 0 0-.375.375c0 .207.168.379.375.379a3.335 3.335 0 0 1 3.332 3.332.375.375 0 0 0 .75 0 4.089 4.089 0 0 0-4.082-4.086zm0 0M19.113 7.809a.376.376 0 0 0-.375.378c0 .208.168.376.375.376a2.633 2.633 0 0 1 2.633 2.628.375.375 0 0 0 .75 0 3.387 3.387 0 0 0-3.383-3.382zm0 0"/>
    <path d="M19.113 6.309c-.32 0-.636.03-.949.09A5.593 5.593 0 0 0 12.601.293c-3.05-.001-5.539 2.46-5.585 5.499a5.292 5.292 0 0 0-7.016 5c0 1.316.488 2.578 1.375 3.555a5.272 5.272 0 0 0 3.234 1.687.39.39 0 0 0 .176.043h3.406v4.445c0 .207.168.375.375.375h6.817a.375.375 0 0 0 .375-.375v-4.445h3.355A4.891 4.891 0 0 0 24 11.191a4.89 4.89 0 0 0-4.887-4.882zm-3.73 5.62a.376.376 0 0 0-.375.38v7.84H8.945v-7.84a.377.377 0 0 0-.379-.38H5.824l6.153-4.964 6.171 4.965zm3.73 3.395h-3.355v-2.64h3.457c.16 0 .3-.102.355-.25a.377.377 0 0 0-.12-.418l-7.24-5.829a.376.376 0 0 0-.472.004l-7.215 5.825a.376.376 0 0 0 .238.668h3.43v2.64h-3.27a.444.444 0 0 0-.097-.023A4.515 4.515 0 0 1 .75 10.793a4.539 4.539 0 0 1 6.5-4.09.378.378 0 0 0 .54-.375 4.308 4.308 0 0 1-.024-.445 4.84 4.84 0 0 1 4.836-4.836 4.842 4.842 0 0 1 4.742 5.785.378.378 0 0 0 .117.356.37.37 0 0 0 .367.074 4.14 4.14 0 0 1 5.422 3.93 4.138 4.138 0 0 1-4.137 4.132zm0 0M15.383 21.55H8.566a.375.375 0 0 0-.375.376c0 .207.168.379.375.379h6.817a.378.378 0 0 0 .375-.38.375.375 0 0 0-.375-.374zm0 0M15.383 22.953H8.566a.375.375 0 0 0-.375.375c0 .211.168.379.375.379h6.817a.376.376 0 0 0 .375-.379.375.375 0 0 0-.375-.375zm0 0"/>
</svg>
